polaris-icons/icons/PersonExitIcon.svg

<svg xmlns="http://www.w3.org/2000/svg" viewBox="0 0 20 20"><path fill-rule="evenodd" d="M8.5179 16H13.36C14.0948 16 14.8154 15.7973 15.4424 15.4141C15.8292 15.1777 16.1611 14.8615 16.4158 14.4864L16.43 14.4656C16.8014 13.9187 17 13.2729 17 12.6118V11.3014C17 10.8872 16.6642 10.5514 16.25 10.5514C15.8358 10.5514 15.5 10.8872 15.5 11.3014V12.6118C15.5 12.9723 15.3917 13.3246 15.1891 13.6228L15.175 13.6437C15.0403 13.842 14.8648 14.0092 14.6603 14.1342C14.2751 14.3695 13.8335 14.4958 13.3824 14.4999C12.8444 13.9213 12.2206 13.4984 11.5861 13.0787C10.7757 12.5427 9.85539 12.1951 8.89294 12.0616C7.93048 11.9281 6.95034 12.0121 6.02464 12.3074C5.53334 12.4642 5.064 12.6783 4.62596 12.9443C4.58755 12.7917 4.55833 12.6035 4.53838 12.3593C4.50058 11.8967 4.5 11.3025 4.5 10.45V9.55C4.5 8.69755 4.50058 8.10331 4.53838 7.64068C4.57547 7.1868 4.6446 6.92604 4.74524 6.72852C4.96095 6.30516 5.30516 5.96095 5.72852 5.74524C5.92604 5.6446 6.18681 5.57547 6.64068 5.53838C7.10331 5.50058 7.69755 5.5 8.55 5.5H12.25C12.6642 5.5 13 5.16421 13 4.75C13 4.33579 12.6642 4 12.25 4H8.51788C7.70505 3.99999 7.04944 3.99999 6.51853 4.04336C5.9719 4.08803 5.49175 4.18238 5.04754 4.40873C4.34193 4.76825 3.76825 5.34193 3.40873 6.04754C3.18239 6.49175 3.08803 6.97189 3.04336 7.51853C2.99999 8.04944 2.99999 8.70505 3 9.51788V10.4821C2.99999 11.2949 2.99999 11.9506 3.04336 12.4815C3.08803 13.0281 3.18239 13.5082 3.40873 13.9525C3.76825 14.6581 4.34193 15.2317 5.04754 15.5913C5.49175 15.8176 5.9719 15.912 6.51853 15.9566C7.04944 16 7.70506 16 8.5179 16ZM8.55 14.5H11.0139C10.9316 14.4446 10.8465 14.388 10.7585 14.3298C10.1351 13.9174 9.42723 13.6501 8.68688 13.5474C7.94653 13.4447 7.19258 13.5093 6.4805 13.7365C6.15276 13.841 5.83773 13.9788 5.54008 14.147C5.60093 14.1858 5.6638 14.2218 5.72852 14.2548C5.92604 14.3554 6.18681 14.4245 6.64068 14.4616C7.10331 14.4994 7.69755 14.5 8.55 14.5Z"/>
<path fill-rule="evenodd" d="M8 6.5C6.61929 6.5 5.5 7.61929 5.5 9C5.5 10.3807 6.61929 11.5 8 11.5C9.38071 11.5 10.5 10.3807 10.5 9C10.5 7.61929 9.38071 6.5 8 6.5ZM7 9C7 8.44772 7.44772 8 8 8C8.55228 8 9 8.44772 9 9C9 9.55229 8.55228 10 8 10C7.44772 10 7 9.55229 7 9Z"/>
<path d="M11.5 9.75C11.5 10.1642 11.8358 10.5 12.25 10.5C12.6642 10.5 13 10.1642 13 9.75V9.25C13 8.2835 13.7835 7.5 14.75 7.5H15.1893L14.7197 7.96967C14.4268 8.26256 14.4268 8.73744 14.7197 9.03033C15.0126 9.32322 15.4874 9.32322 15.7803 9.03033L17.5303 7.28033C17.8232 6.98744 17.8232 6.51256 17.5303 6.21967L15.7803 4.46967C15.4874 4.17678 15.0126 4.17678 14.7197 4.46967C14.4268 4.76256 14.4268 5.23744 14.7197 5.53033L15.1893 6H14.75C12.9551 6 11.5 7.45507 11.5 9.25V9.75Z"/>
</svg>

<svg xmlns="http://www.w3.org/2000/svg" viewBox="0 0 20 20"><path fill-rule="evenodd" d="M8.518 16h4.842c.735 0 1.455-.203 2.082-.586.387-.236.72-.553.974-.928l.014-.02c.371-.547.57-1.193.57-1.854v-1.31c0-.415-.336-.75-.75-.75s-.75.335-.75.75v1.31c0 .36-.108.713-.31 1.01l-.015.022c-.135.198-.31.365-.515.49-.385.236-.826.362-1.278.366-.538-.579-1.161-1.002-1.796-1.421-.81-.536-1.73-.884-2.693-1.017-.963-.134-1.943-.05-2.868.245-.492.157-.961.371-1.399.637-.038-.152-.068-.34-.088-.585-.037-.462-.038-1.056-.038-1.909v-.9c0-.852 0-1.447.038-1.91.037-.453.107-.714.207-.911.216-.424.56-.768.984-.984.197-.1.458-.17.912-.207.462-.037 1.057-.038 1.909-.038h3.7c.414 0 .75-.336.75-.75s-.336-.75-.75-.75h-3.732c-.813 0-1.469 0-2 .043-.546.045-1.026.14-1.47.366-.706.36-1.28.933-1.64 1.639-.226.444-.32.924-.365 1.47-.043.531-.043 1.187-.043 2v.964c0 .813 0 1.469.043 2 .045.546.14 1.026.366 1.47.36.706.933 1.28 1.639 1.64.444.226.924.32 1.47.365.531.043 1.187.043 2 .043Zm.032-1.5h2.464l-.255-.17c-.624-.413-1.332-.68-2.072-.783-.74-.102-1.494-.038-2.206.19-.328.104-.643.242-.94.41.06.039.123.075.188.108.197.1.458.17.912.207.462.037 1.057.038 1.909.038Z"/><path fill-rule="evenodd" d="M8 6.5c-1.38 0-2.5 1.12-2.5 2.5s1.12 2.5 2.5 2.5 2.5-1.12 2.5-2.5-1.12-2.5-2.5-2.5Zm-1 2.5c0-.552.448-1 1-1s1 .448 1 1-.448 1-1 1-1-.448-1-1Z"/><path d="M11.5 9.75c0 .414.336.75.75.75s.75-.336.75-.75v-.5c0-.966.784-1.75 1.75-1.75h.44l-.47.47c-.293.293-.293.767 0 1.06.293.293.767.293 1.06 0l1.75-1.75c.293-.293.293-.767 0-1.06l-1.75-1.75c-.293-.293-.767-.293-1.06 0-.293.293-.293.767 0 1.06l.47.47h-.44c-1.795 0-3.25 1.455-3.25 3.25v.5Z"/></svg>
